web/ui/src/components/theme/tabs/svgs/complete.svg

<svg height="16" viewBox="0 0 16 16" width="16" xmlns="http://www.w3.org/2000/svg"><g fill="none"><path d="m0 0h16v16h-16z" fill="#000" opacity="0"/><path d="m3.59163013 4.23785686c-.27212271.00365211-.48982087.24469139-.48698437.53832107-.0028365.29399489.21486166.53466896.48698437.53868628h5.83989642c.2721227-.00365211.48982086-.24469139.48698436-.53868628.0028365-.29362968-.21486166-.53466896-.48698436-.53832107zm2.92030626 3.23065686h-2.92030626c-.27212271.00365211-.48982087.24469139-.48698437.53832107-.0028365.29362967.21486166.53466896.48698437.53832107h2.92030626c.27212271-.00365211.48982087-.2446914.48695642-.53832107.00227897-.13970312-.04779384-.27502801-.13999997-.37835864-.08907162-.09984841-.214624-.15773367-.34695645-.15996243zm5.19825971-6.46131372c1.0738105 0 1.9464214.96525278 1.9464214 2.1536495v2.69233579c.0028365.29362967-.2148616.53466896-.4869844.53832107-.2717646-.00401732-.4891047-.2446914-.4858822-.53832107v-2.69233579c0-.59492878-.4350383-1.07664214-.9735548-1.07664214h-8.75984461c-.53815845 0-.97355477.48098294-.97355477 1.07664214v9.692701c0 .595294.43539632 1.0766421.97391283 1.0766421h4.37974329c.26961631 0 .48695641.2406741.48695641.5386863.00286445.2936297-.21483371.534669-.48695641.5383211h-4.38010135c-1.07416856 0-1.94675149-.9652528-1.94675149-2.1536495v-9.692701c0-1.18839672.87222487-2.1536495 1.94675149-2.1536495zm3.0977231 7.55785986c.2143851.18647408.2585683.50683524.1029412.74640007l-.0425192.05706422-3.3500632 3.99449575c-.1914833.2291035-.5245221.2670693-.7608694.0867376l-2.23785116-1.7119267c-.2484622-.1765679-.31409024-.5227259-.14807833-.7810457s.5033963-.3350233.76124955-.1730682l.05818413.0410863 1.81937301 1.3900845 3.007672-3.58819847c.0966305-.11520233.234235-.18644694.382443-.19800948.148208-.01156255.2948347.03750757.4075184.13638011z" fill="#595959"/></g></svg>

<?xml version="1.0" encoding="UTF-8"?>
<svg width="16px" height="16px" viewBox="0 0 16 16" version="1.1" xmlns="http://www.w3.org/2000/svg" xmlns:xlink="http://www.w3.org/1999/xlink">
    <title>complete</title>
    <g id="页面-1" stroke="none" stroke-width="1" fill="none" fill-rule="evenodd">
        <g id="系统设计规范" transform="translate(-502.000000, -5388.000000)" fill-rule="nonzero">
            <g id="complete" transform="translate(502.000000, 5388.000000)">
                <rect id="矩形" fill="#000000" opacity="0" x="0" y="0" width="16" height="16"></rect>
                <path d="M3.59163013,4.23785686 C3.31950742,4.24150897 3.10180926,4.48254825 3.10464576,4.77617793 C3.10180926,5.07017282 3.31950742,5.31084689 3.59163013,5.31486421 L9.43152655,5.31486421 C9.70364925,5.3112121 9.92134741,5.07017282 9.91851091,4.77617793 C9.92134741,4.48254825 9.70364925,4.24150897 9.43152655,4.23785686 L3.59163013,4.23785686 L3.59163013,4.23785686 Z M6.51193639,7.46851372 L3.59163013,7.46851372 C3.31950742,7.47216583 3.10180926,7.71320511 3.10464576,8.00683479 C3.10180926,8.30046446 3.31950742,8.54150375 3.59163013,8.54515586 L6.51193639,8.54515586 C6.7840591,8.54150375 7.00175726,8.30046446 6.99889281,8.00683479 C7.00117178,7.86713167 6.95109897,7.73180678 6.85889284,7.62847615 C6.76982122,7.52862774 6.64426884,7.47074248 6.51193639,7.46851372 L6.51193639,7.46851372 Z M11.7101961,1.0072 C12.7840066,1.0072 13.6566175,1.97245278 13.6566175,3.1608495 L13.6566175,5.85318529 C13.659454,6.14681496 13.4417559,6.38785425 13.1696331,6.39150636 C12.8978685,6.38748904 12.6805284,6.14681496 12.6837509,5.85318529 L12.6837509,3.1608495 C12.6837509,2.56592072 12.2487126,2.08420736 11.7101961,2.08420736 L2.95035149,2.08420736 C2.41219304,2.08420736 1.97679672,2.5651903 1.97679672,3.1608495 L1.97679672,12.8535505 C1.97679672,13.4488445 2.41219304,13.9301926 2.95070955,13.9301926 L7.33045284,13.9301926 C7.60006915,13.9301926 7.81740925,14.1708667 7.81740925,14.4688789 C7.8202737,14.7625086 7.60257554,15.0035479 7.33045284,15.0072 L2.95035149,15.0072 C1.87618293,15.0072 1.0036,14.0419472 1.0036,12.8535505 L1.0036,3.1608495 C1.0036,1.97245278 1.87582487,1.0072 2.95035149,1.0072 L11.7101961,1.0072 Z M14.8079192,8.56505986 C15.0223043,8.75153394 15.0664875,9.0718951 14.9108604,9.31145993 L14.8683412,9.36852415 L11.518278,13.3630199 C11.3267947,13.5921234 10.9937559,13.6300892 10.7574086,13.4497575 L8.51955744,11.7378308 C8.27109524,11.5612629 8.2054672,11.2151049 8.37147911,10.9567851 C8.53749102,10.6984653 8.87487541,10.6217618 9.13272866,10.7837169 L9.19091279,10.8248032 L11.0102858,12.2148877 L14.0179578,8.62668923 C14.1145883,8.5114869 14.2521928,8.44024229 14.4004008,8.42867975 C14.5486088,8.4171172 14.6952355,8.46618732 14.8079192,8.56505986 Z" id="形状" fill="#595959"></path>
            </g>
        </g>
    </g>
</svg>
